X:1
T:Alone with God
T:Alone with God
T:William James Kirkpatrick
T:Johnson Oatman, Jr., 1904
T:Public Domain Courtesy of the Cyber Hymnal™
T:Public Domain Courtesy of the Cyber Hymnal™
C:William James Kirkpatrick
Z:Public Domain
Z:Courtesy of the Cyber Hymnal™
%%score ( 1 2 ) ( 3 4 )
L:1/8
Q:1/4=113
M:4/4
K:F
V:1 treble 
V:2 treble 
V:3 bass 
V:4 bass 
V:1
 C2 | [CF]>[CF] [CF]>[CF] [FA]2 [CF]2 | [FA][Fc]- [Fc]4 [Fd]2 | [Fc]>[Fc] [Fc]>[Fc] [FA]2 F2 | %4
w: 1.~When|storms of life are round me|beat- ing, * When|rough the path that I have|
w: 2.~What|tho’ the clouds have ga- thered|o’er me? * What|tho’ I’ve passed be- neath the|
w: 3.~’Tis|there I find new strength for|du- ty, * As|o’er the sands of time I|
w: 4.~And|when I see the mo- ment|near- ing * When|I shall sleep be- neath the|
 [EG]6 C2 | [CF]>[CF] [CF]>[CF] [FA]2 [CF]2 | [FA][Fc]- [Fc]4 [Fd]2 | %7
w: trod, With-|in my clo- set door re-|treat- ing, * I|
w: rod? God’s|per- fect will there lies be-|fore me, * When|
w: plod; I|see the King in all His|beau- ty, * While|
w: sod, When|time with me is dis- ap-|pear- ing, * I|
 [Fc]>[FA] [FG]>F [FA]2 [EG]2 | [CF]4- [CF] ||"^Refrain"[Q:1/4=105] [FA][FA]>[GB] | %10
w: love to be a- lone with|God. *||
w: I am thus a- lone with|God. *|A- lone with|
w: rest- ing there a- lone with|God. *||
w: want to be a- lone with|God. *||
 [Ac]4- [Ac]>[Fc] [Fd]>[Fd] | [Fc]4 [FA]>[FA] [EG]>[FA] | [GB]4- [GB]>[EG] [FA]>[GB] | %13
w: |||
w: God, * the world for-|bid- den, A- lone with|God, * O blest re-|
w: |||
w: |||
 [FA]4- [FA]>[FA] [FA]>[GB] | [Ac]4- [Ac]>[FA] [FB]>[Fd] | [Fc]4 [FA]>C F>G | %16
w: |||
w: treat! * A- lone with|God, * and in Him|hid- den, To hold with|
w: |||
w: |||
 (z3/2 [FA]>)"^riten."[FB]!fermata![FA]!fermata!G x7/2 | [CF]6 |] %18
w: ||
w: * Him com- mun-|ion|
w: ||
w: ||
V:2
 C2 | x8 | x8 | x6 F2 | x6 C2 | x8 | x8 | x7/2 F/ x4 | x5 || x3 | x8 | x8 | x8 | x8 | x8 | x8 | %16
 (A4 F3/4FF3/4 x3/2 E/C/) | x6 |] %18
V:3
 [F,A,]2 | [F,A,]>[F,A,] [F,A,]>[F,A,] [F,C]2 [F,A,]2 | [F,C][F,A,]- [F,A,]4 [F,B,]2 | %3
w: ~|~ ~ ~ ~ ~ ~|~ ~ * ~|
 [F,A,]>[F,A,] [F,A,]>[F,A,] [F,C]2 [D,=B,]2 | [C,C]6 [F,A,]2 | %5
w: ~ ~ ~ ~ ~ ~|~ ~|
 [F,A,]>[F,A,] [F,A,]>[F,A,] [F,C]2 [F,A,]2 | [F,C][F,A,]- [F,A,]4 [B,,B,]2 | %7
w: ~ ~ ~ ~ ~ ~|~ ~ * ~|
 [C,A,]>[C,C] [D,=B,]>[D,B,] [C,C]2 [C,_B,]2 | [F,A,]4- [F,A,] || z z2 | %10
w: ~ ~ ~ ~ ~ ~|~ *||
 z3/2 [F,C]/ [F,C]>[F,C] [F,C]>[F,A,] [F,B,]>[F,B,] | [F,A,]4 [F,C]3/2 z/ z2 | %12
w: A- lone with God, ~ ~ ~|~ ~|
 z3/2 [C,E]/ [C,E]>[C,D] [C,C]>[C,C] [C,C]>[C,C] | [F,C]4- [F,C]3/2 z/ z2 | %14
w: A- lone with God, ~ ~ ~|~ *|
 z3/2 [F,C]/ [F,C]>[F,C] [F,F]>[F,_E] [F,D]>[F,B,] | [F,A,]4 [F,C]>A, A,>B, | %16
w: A- lone with God, ~ ~ ~|~ ~ ~ ~ ~|
 z3/2 [F,C]>[B,,D]!fermata![C,C]!fermata![C,B,] x7/2 | [F,A,]6 |] %18
w: ~ To hold with|Him|
V:4
 x2 | x8 | x8 | x8 | x8 | x8 | x8 | x8 | x5 || x3 | x8 | x8 | x8 | x8 | x8 | x8 | %16
 C4 F,/ F,3/2 F,/ x5/2 | x6 |] %18

